svgs/solid/brackets-curly.svg

<svg xmlns="http://www.w3.org/2000/svg" viewBox="0 0 576 512"><!-- Font Awesome Pro 6.0.0-alpha2 by @fontawesome - https://fontawesome.com License - https://fontawesome.com/license (Commercial License) --><path d="M191.997 32H159.997C106.977 32 63.997 74.981 63.997 128V165.5C63.997 173.984 60.626 182.12 54.627 188.119L9.372 233.375C-3.124 245.87 -3.124 266.13 9.372 278.625L54.627 323.881C60.626 329.88 63.997 338.016 63.997 346.5V384C63.997 437.019 106.977 480 159.997 480H191.997C209.67 480 223.997 465.673 223.997 448V448C223.997 430.327 209.67 416 191.997 416H159.997C142.397 416 127.997 401.6 127.997 384V346.5C127.997 321.048 117.886 296.639 99.889 278.642L77.247 256L99.872 233.375C117.88 215.367 127.997 190.943 127.997 165.475V128C127.997 110.4 142.397 96 159.997 96H191.997C209.67 96 223.997 81.673 223.997 64V64C223.997 46.327 209.67 32 191.997 32ZM566.622 233.375L521.372 188.125C515.369 182.122 511.997 173.981 511.997 165.492V128C511.997 74.981 469.016 32 415.997 32H383.997C366.323 32 351.997 46.327 351.997 64V64C351.997 81.673 366.323 96 383.997 96H415.997C433.597 96 447.997 110.4 447.997 128V165.5C447.997 190.952 458.107 215.361 476.104 233.358L498.747 256L476.104 278.642C458.107 296.639 447.997 321.048 447.997 346.5V384C447.997 401.6 433.597 416 415.997 416H383.997C366.323 416 351.997 430.327 351.997 448V448C351.997 465.673 366.323 480 383.997 480H415.997C469.016 480 511.997 437.019 511.997 384V346.5C511.997 338.016 515.367 329.88 521.366 323.881L566.622 278.625C579.117 266.13 579.117 245.87 566.622 233.375Z"/></svg>

<svg xmlns="http://www.w3.org/2000/svg" viewBox="0 0 576 512"><!--! Font Awesome Pro 6.3.0 by @fontawesome - https://fontawesome.com License - https://fontawesome.com/license (Commercial License) Copyright 2023 Fonticons, Inc. --><path d="M416 32H384c-17.7 0-32 14.3-32 32s14.3 32 32 32h32c17.7 0 32 14.3 32 32v37.5c0 25.5 10.1 49.9 28.1 67.9L498.7 256l-22.6 22.6c-18 18-28.1 42.4-28.1 67.9V384c0 17.7-14.3 32-32 32H384c-17.7 0-32 14.3-32 32s14.3 32 32 32h32c53 0 96-43 96-96V346.5c0-8.5 3.4-16.6 9.4-22.6l45.3-45.3c12.5-12.5 12.5-32.8 0-45.3l-45.3-45.3c-6-6-9.4-14.1-9.4-22.6V128c0-53-43-96-96-96zM160 32c-53 0-96 43-96 96v37.5c0 8.5-3.4 16.6-9.4 22.6L9.4 233.4c-12.5 12.5-12.5 32.8 0 45.3l45.3 45.3c6 6 9.4 14.1 9.4 22.6V384c0 53 43 96 96 96h32c17.7 0 32-14.3 32-32s-14.3-32-32-32H160c-17.7 0-32-14.3-32-32V346.5c0-25.5-10.1-49.9-28.1-67.9L77.3 256l22.6-22.6c18-18 28.1-42.4 28.1-67.9V128c0-17.7 14.3-32 32-32h32c17.7 0 32-14.3 32-32s-14.3-32-32-32H160z"/></svg>
